svgs/solid/engine-warning.svg

<svg xmlns="http://www.w3.org/2000/svg" viewBox="0 0 640 512"><!--! Font Awesome Pro 6.2.0 by @fontawesome - https://fontawesome.com License - https://fontawesome.com/license (Commercial License) Copyright 2022 Fonticons, Inc. --><path d="M424 88c0 13.3-10.7 24-24 24l-72 0v32h81.5c14.5 0 28.6 4.9 40 14L488 188.8c15.2 12.1 24 30.5 24 50V384c0 35.3-28.7 64-64 64H254.8c-19.4 0-37.8-8.8-50-24l-32-40H128c-17.7 0-32-14.3-32-32V280H48v72c0 13.3-10.7 24-24 24s-24-10.7-24-24V160c0-13.3 10.7-24 24-24s24 10.7 24 24v72H96V176c0-17.7 14.3-32 32-32l32 0 48 0 72 0V112l-72 0c-13.3 0-24-10.7-24-24s10.7-24 24-24H400c13.3 0 24 10.7 24 24zM324 208c0-11-9-20-20-20s-20 9-20 20v88c0 11 9 20 20 20s20-9 20-20V208zM304 392c13.3 0 24-10.7 24-24s-10.7-24-24-24s-24 10.7-24 24s10.7 24 24 24zM576 192h32c17.7 0 32 14.3 32 32V416c0 17.7-14.3 32-32 32H576c-17.7 0-32-14.3-32-32V224c0-17.7 14.3-32 32-32z"/></svg>

<svg xmlns="http://www.w3.org/2000/svg" viewBox="0 0 640 512"><!--! Font Awesome Pro 6.1.2 by @fontawesome - https://fontawesome.com License - https://fontawesome.com/license (Commercial License) Copyright 2022 Fonticons, Inc. --><path d="M424 88C424 101.3 413.3 112 400 112H328V144H409.5C424.1 144 438.2 148.9 449.5 158L487.1 188.8C503.2 200.9 512 219.3 512 238.8V384C512 419.3 483.3 448 448 448H254.8C235.3 448 216.9 439.2 204.8 423.1L172.8 384H128C110.3 384 96 369.7 96 352V280H48V352C48 365.3 37.25 376 24 376C10.75 376 0 365.3 0 352V160C0 146.7 10.75 136 24 136C37.25 136 48 146.7 48 160V232H96V176C96 158.3 110.3 144 128 144H280V112H208C194.7 112 184 101.3 184 88C184 74.75 194.7 64 208 64H400C413.3 64 424 74.75 424 88zM324 208C324 196.1 315 188 304 188C292.1 188 284 196.1 284 208V296C284 307 292.1 316 304 316C315 316 324 307 324 296V208zM304 392C317.3 392 328 381.3 328 368C328 354.7 317.3 344 304 344C290.7 344 280 354.7 280 368C280 381.3 290.7 392 304 392zM608 192C625.7 192 640 206.3 640 224V416C640 433.7 625.7 448 608 448H576C558.3 448 544 433.7 544 416V224C544 206.3 558.3 192 576 192H608z"/></svg>
